X:1
T: Redheugh
C:Muriel A Johnstone
R:Reel
%Q: 232
K:Dm
M:4/4
L:1/8
|:A2|DE FG A2 d2|c2 Gc EC GE|DE FG A2 f2|ed ^ce d2 A2|
DE FG Ad ^cd|c2 Gc EC GE|DE FG A^c df|ed ^ce fd de|
f2 df =BG dB|e2 ce Gc de|f2 df eb ag|f2 d2 d2 e2|
f2 df =BG dB|e2 ce AG FE|FD AD ^CA, GE|F2 D2 D2:|
